X:130
T:If God Had Not Been on Our Side
%%stretchlast false
M:4/4
L:1/4
K:Bb clef=C1
"^ii"[CEc]2 [CEcg] "^IV"[EGBg] | "^I"[B,FBd] "^v"[F,_Acf] "^ii"[CGce] "^V/ii"[G,G=Bd] | "^ii"[CEc] "^ii¹"[Ec]/ "^ii"[CGc]/ [CEcg]/ [F,Ecg]/ "^V"[F,Fca]/ "^Imaj7"[B,Fda]/ | "^I"[B,Fdb]/ "^ii"[EFcb]/ "^ii¹"[EGcc']/ "^ii"[DGdc']/ "^vi²"[DGdb] "^V/vi"[D_Gda]/ "^vi"[G,_GBa]/ | [G,GBg]7/2 "^ii"[CGcg]/ | [CEc]3/2 [CEc]/ [CEcg]/ "^IV"[EBg]/ [EGBg]/ "^vi¹"[B,GBg]/ | "^I"[B,FBd]/ [F,Fcd]/ "^v"[F,_Acf]/ "^v²"[C_Acf]/ "^ii"[CGce]/ "^VI+"[G,G=Be]/ "^V/ii"[G,G=Bd]/ "^ii"[CGcd]/ | [CEc]/ "^ii¹"[Ec]/ "^ii"[Cc]/ [CGc]/ [F,Ecg] "^Imaj7"[B,Fda] | "^ii"[EFcb] [DGdc'] "^vi²"[DGdb] "^vi"[G,_GBa] | "^ii"[CGcg]/ [A,Gcg] "^♯iv"[F,=Efg]/ "^v7"[F,Efc']/ "^ii²"[G,Edc']/ [G,Adc']/ "^iii7"[DAdc']/ | "^vi²"[DGdb]/ "^vi¹"[B,Gdb]/ "^Imaj7"[B,Fda]/ "^V²"[CFca]/ [CFcb]/ [F,FAb]/ "^V"[F,=EAg]/ "^♯iv"[=EFfg]/ | "^iii"[DFf] "^v"[Ff]/ "^V"[FAf]/ "^vi"[Gdb] "^iii7"[Dcda] | "^IV"[EBg] "^V²"[CAcf] "^V/ii"[G,G=Bg] "^ii"[CGce]/ "^♭VIImaj7"[_A,Gce]/ | [_A,Gcd]/ [F,Gcd] "^ii¹"[E,Ec]/ "^♭VII²"[E,_Ace]/ "^♭VII¹"[C,_Ace]/ "^V²"[C,Acf]/ "^VI"[G,A=Bf]/ | "^vii"[G,GAg]/ [G,GBg]/ "^IV¹"[G,GBe]/ "^ii"[CGce]/ [CGcd]2 | [CEc]4 |]
